X: 325
T:La belle se siet
N: Derived from Jos2720-La_belle_se_siet.krn
C: Josquin des Prez
%%abc-version 2.0
%%abcx-abcm2ps-target-version 5.9.1 (29 Sep 2008)
%%abc-creator hum2abc beta
%%abcx-conversion-date 2019/02/12 16:15:54
%%abc-edited-by Jesse Rodin
%%abc-edited-by Jesse Rodin; Victoria Chang 2011/05/30
%%abcx-initial-encoding-date 2011/05/30/
%%humdrum-veritas 3041243164
%%humdrum-veritas-data 1372746344
%%linebreak <none>
%%barnumbers 0
L: 1/4
M: 2/1
Q: 1/2=120
V: 1 clef=bass
V: 2 clef=bass
V: 3 clef=bass
K: F
[V:1] z8 | 
[V:2] F,8 | 
[V:3] F,4F,2F,2- | 
[V:1] z8 | 
[V:2] F,4G,4- | 
[V:3] F,2E,D,C,B,,C,2- | 
[V:1] z8 | 
[V:2] G,4G,4 | 
[V:3] C,2B,,A,,G,,F,,G,,2 | 
[V:1] F,8 | 
[V:2] A,3G,F,E,F,2- | 
[V:3] F,,2F,3G,A,2- | 
[V:1] F,4G,4- | 
[V:2] F,2E,D,C,B,,C,2- | 
[V:3] A,2G,F,E,D,E,2- | 
[V:1] G,4G,4 | 
[V:2] C,2B,,A,,G,,F,,G,,2 | 
[V:3] E,C,F,4E,2 | 
[V:1] A,8 | 
[V:2] F,,G,,A,,B,,C,2D,2- | 
[V:3] F,4z4 | 
[V:1] F,3G,A,B,C2- | 
[V:2] D,2C,B,,A,,2F,2- | 
[V:3] F,,8 | 
[V:1] C2B,A,B,3C | 
[V:2] F,2F,2D,2G,2- | 
[V:3] F,,4G,,4- | 
[V:1] D2C4=B,2 | 
[V:2] G,2F,E,D,4 | 
[V:3] G,,4G,,4 | 
[V:1] C4z4 | 
[V:2] C,4F,4 | 
[V:3] A,,8 | 
[V:1] G,4A,4- | 
[V:2] E,8 | 
[V:3] C,8 | 
[V:1] A,2F,4E,D, | 
[V:2] z8 | 
[V:3] D,6B,,2- | 
[V:1] D,2G,4^F,2 | 
[V:2] z4C,4 | 
[V:3] B,,2A,,G,,A,,4 | 
[V:1] G,4z4 | 
[V:2] D,6B,,2- | 
[V:3] G,,A,,B,,C,D,E,F,G, | 
[V:1] z4C,4 | 
[V:2] B,,2A,,G,,A,,4 | 
[V:3] F,D,G,4^F,2 | 
[V:1] D,6B,,2- | 
[V:2] G,,A,,B,,C,D,E,F,G, | 
[V:3] G,4z4 | 
[V:1] B,,2A,,G,,A,,4 | 
[V:2] F,D,G,4^F,2 | 
[V:3] z4C,4 | 
[V:1] G,,A,,B,,C,D,E,F,G, | 
[V:2] G,4z4 | 
[V:3] D,6B,,2- | 
[V:1] F,D,G,4^F,2 | 
[V:2] B,,4C,4 | 
[V:3] B,,2A,,G,,A,,4 | 
[V:1] G,4G,3G, | 
[V:2] D,4_E,4 | 
[V:3] G,,8 | 
[V:1] G,2G,2G,2G,2 | 
[V:2] D,4D,3D, | 
[V:3] G,,3G,,G,,2G,,2 | 
[V:1] G,2G,2B,4 | 
[V:2] D,2D,2D,2D,2 | 
[V:3] G,,2G,,2G,,2G,,2 | 
[V:1] B,2F,3G,A,B, | 
[V:2] D,2D,2F,4 | 
[V:3] B,,4B,,2F,,2- | 
[V:1] C2C2G,3A, | 
[V:2] F,2C,3D,E,F, | 
[V:3] F,,G,,A,,B,,C,2C,2 | 
[V:1] B,CD4CB, | 
[V:2] G,2G,2D,3E, | 
[V:3] G,,3A,,B,,C,D,2- | 
[V:1] A,3B,C4 | 
[V:2] F,G,A,4G,F, | 
[V:3] D,2C,B,,A,,3B,, | 
[V:1] G,3A,B,3A, | 
[V:2] E,3F,G,4 | 
[V:3] C,4G,,3A,, | 
[V:1] F,2B,2A,2D,E, | 
[V:2] D,3E,F,3E, | 
[V:3] B,,3A,,F,,2B,,2 | 
[V:1] F,G,A,F,G,2F,2- | 
[V:2] C,D,E,C,D,C,C,2- | 
[V:3] A,,B,,C,A,,B,,A,,G,,F,, | 
[V:1] F,2E,2F,4 | 
[V:2] C,2B,,2C,4- | 
[V:3] G,,4F,,4- | 
[V:1] z2F,2F,3F, | 
[V:2] C,4z2B,,2 | 
[V:3] F,,4z4 | 
[V:1] F,2F,2G,2G,2 | 
[V:2] B,,3B,,B,,2B,,2 | 
[V:3] z8 | 
[V:1] G,2G,2G,2G,2 | 
[V:2] C,2C,2C,2C,2 | 
[V:3] z8 | 
[V:1] A,2F,3E,D,2 | 
[V:2] C,2C,2D,E,F,G, | 
[V:3] F,,4F,,2F,,2 | 
[V:1] C,4B,,2G,2- | 
[V:2] A,B,CA,B,A,B,C | 
[V:3] F,,2F,,2G,,2G,,2 | 
[V:1] G,F,E,2D,4 | 
[V:2] D2C4=B,2 | 
[V:3] G,,2G,,2G,,2G,,2 | 
[V:1] C,2A,3G,F,2 | 
[V:2] C8- | 
[V:3] A,,8- | 
[V:1] E,2F,2C,4 | 
[V:2] C4z2C2 | 
[V:3] A,,8- | 
[V:1] z2C,2A,,2C,2- | 
[V:2] A,2C3B,A,G, | 
[V:3] A,,8 | 
[V:1] C,B,,A,,G,,A,,4 | 
[V:2] A,G,G,4^F,2 | 
[V:3] C,8 | 
[V:1] G,,A,,B,,C,D,E,F,G, | 
[V:2] G,2F,3E,D,2- | 
[V:3] D,4B,,4 | 
[V:1] A,2G,4^F,2 | 
[V:2] D,2C,B,,C,4 | 
[V:3] A,,8 | 
[V:1] G,8- | 
[V:2] D,4D,2D,2- | 
[V:3] G,,8 | 
[V:1] G,4G,2G,2- | 
[V:2] D,2D,2D,4 | 
[V:3] G,,2G,,4G,,2 | 
[V:1] G,2G,2G,4 | 
[V:2] z2D,2G,3F, | 
[V:3] G,,4z2G,,2 | 
[V:1] z2G,2C3B, | 
[V:2] E,3D,C,4 | 
[V:3] C,3B,,A,,3G,, | 
[V:1] A,3G,F,2B,2 | 
[V:2] F,3E,D,C,D,2- | 
[V:3] F,,4B,,4- | 
[V:1] G,A,B,G,A,2G,2- | 
[V:2] D,2B,,2C,2D,2- | 
[V:3] B,,4A,,2B,,2- | 
[V:1] G,F,F,4E,2 | 
[V:2] D,C,C,4B,,2 | 
[V:3] B,,A,,G,,F,,G,,4 | 
[V:1] F,4z4 | 
[V:2] C,4z2G,2 | 
[V:3] F,,2F,,2C,2C,2 | 
[V:1] z2A,2C2C2 | 
[V:2] C2C2A,2A,2 | 
[V:3] A,,2A,,2F,,4- | 
[V:1] A,2A,2F,4 | 
[V:2] F,4z2D,2 | 
[V:3] F,,4B,,4- | 
[V:1] z2F,4F,2 | 
[V:2] D,2B,,2C,2D,2- | 
[V:3] B,,4A,,2B,,2- | 
[V:1] G,4B,4 | 
[V:2] D,C,F,4E,2 | 
[V:3] B,,A,,G,,F,,G,,4 | 
[V:1] A,3G,F,E,D,2- | 
[V:2] F,8- | 
[V:3] F,,3G,,A,,2B,,2- | 
[V:1] D,2C,B,,D,2C,2 | 
[V:2] F,8- | 
[V:3] B,,2A,,G,,B,,2F,,2 | 
[V:1] C,8 ||  
[V:2] F,8 ||  
[V:3] F,,8 ||  
[V:1] z8 | 
[V:2] G,6G,2 | 
[V:3] z8 | 
[V:1] z8 | 
[V:2] G,4A,4 | 
[V:3] C,6C,2 | 
[V:1] z8 | 
[V:2] G,2F,E,F,4 | 
[V:3] C,4D,4 | 
[V:1] z8 | 
[V:2] E,2A,4G,2 | 
[V:3] C,2B,,A,,B,,4 | 
[V:1] C8- | 
[V:2] A,2F,2E,2F,2- | 
[V:3] A,,8 | 
[V:1] C8 | 
[V:2] F,2E,D,C,2A,2- | 
[V:3] F,4E,2F,2- | 
[V:1] C8- | 
[V:2] A,2G,F,E,2F,2 | 
[V:3] F,2E,D,C,2A,2- | 
[V:1] C8 | 
[V:2] C,4z2F,2 | 
[V:3] A,2G,F,E,2F,2 | 
[V:1] C8- | 
[V:2] G,3F,/G,/A,3G, | 
[V:3] C,4z2F,2- | 
[V:1] C8 | 
[V:2] A,F,B,4A,2 | 
[V:3] F,2E,D,C,4 | 
[V:1] D8- | 
[V:2] B,2B,2G,3A, | 
[V:3] B,,4z2B,,2 | 
[V:1] D8- | 
[V:2] B,2B,,2G,,3A,, | 
[V:3] G,,3A,,B,,2B,2 | 
[V:1] D8- | 
[V:2] B,,2B,2G,3A, | 
[V:3] G,3A,B,2B,,2 | 
[V:1] D8 | 
[V:2] B,2A,4G,2 | 
[V:3] G,,2A,,2B,,4 | 
[V:1] C8- | 
[V:2] A,2A,,B,,C,D,E,F, | 
[V:3] A,,4z2A,,2- | 
[V:1] C4B,4 | 
[V:2] E,C,F,3E,/D,/E,2 | 
[V:3] A,,2G,,F,,G,,4 | 
[V:1] A,4A,2A,2- | 
[V:2] F,2D,3C,/B,,/C,2 | 
[V:3] F,,2F,3E,/D,/E,2 | 
[V:1] A,2A,2A,4- | 
[V:2] D,4A,,4 | 
[V:3] F,2D,3C,/B,,/C,2 | 
[V:1] A,4C4- | 
[V:2] z2F,4E,2 | 
[V:3] D,4A,,4 | 
[V:1] C8 | 
[V:2] F,4z2C,2 | 
[V:3] z2F,4E,2 | 
[V:1] C8- | 
[V:2] A,,2F,,2C,4 | 
[V:3] F,2C,2A,,2F,,2 | 
[V:1] C4C4- | 
[V:2] F,,2C,3D,E,F, | 
[V:3] C,4F,,2C,2- | 
[V:1] C8 | 
[V:2] G,2C,6 | 
[V:3] C,D,E,F,G,2A,2- | 
[V:1] D4C4 | 
[V:2] B,,4A,,2G,,F,, | 
[V:3] A,2G,4F,2- | 
[V:1] B,4A,4 | 
[V:2] G,,4F,,2F,2 | 
[V:3] F,2E,2F,2D,2 | 
[V:1] A,2A,4A,2 | 
[V:2] E,2D,4C,2 | 
[V:3] C,2D,2A,,4 | 
[V:1] A,4z2A,2 | 
[V:2] D,2F,4E,D, | 
[V:3] z2D,2F,4- | 
[V:1] C8 | 
[V:2] A,4z4 | 
[V:3] F,4E,2F,2- | 
[V:1] D4C4 | 
[V:2] z8 | 
[V:3] F,2E,D,E,2C,2 | 
[V:1] B,4A,2B,2- | 
[V:2] z4z2F,2 | 
[V:3] D,2E,2F,2D,2 | 
[V:1] B,A,A,4G,2 | 
[V:2] C4D4 | 
[V:3] C,4B,,4 | 
[V:1] E,2F,2D,C,D,E, | 
[V:2] C4B,4 | 
[V:3] A,,2F,,2G,,A,,B,,C, | 
[V:1] F,G,F,3E,E,2- | 
[V:2] A,2B,3A,A,2- | 
[V:3] D,E,D,3C,B,,A,, | 
[V:1] E,2D,2E,2A,2 | 
[V:2] A,2G,2A,4- | 
[V:3] B,,4A,,4 | 
[V:1] C3B,A,G,A,2- | 
[V:2] A,4z4 | 
[V:3] A,,4C,3B,, | 
[V:1] A,2G,F,E,2F,2- | 
[V:2] A,4C4 | 
[V:3] A,,G,,A,,4G,,F,, | 
[V:1] F,2E,2F,4- | 
[V:2] C3B,A,G,A,2- | 
[V:3] C,4F,,4 | 
[V:1] F,4G,4 | 
[V:2] A,2G,F,E,2F,2- | 
[V:3] A,,4G,,4- | 
[V:1] B,4A,4- | 
[V:2] F,2E,2F,2C,2 | 
[V:3] G,,4F,,4- | 
[V:1] A,4G,4 | 
[V:2] D,2F,2E,2D,2- | 
[V:3] F,,4G,,4 | 
[V:1] F,4z2C,2 | 
[V:2] D,E,F,G,A,2G,2- | 
[V:3] B,,4A,,4- | 
[V:1] C,3D,E,2D,2- | 
[V:2] G,2^F,2G,4- | 
[V:3] A,,4G,,4- | 
[V:1] D,2G,4F,2 | 
[V:2] G,4D,4 | 
[V:3] G,,4B,,4- | 
[V:1] G,2F,4E,2 | 
[V:2] G,,2D,2C,4- | 
[V:3] B,,4A,,4- | 
[V:1] F,2E,4D,2 | 
[V:2] C,4B,,4 | 
[V:3] A,,4G,,4- | 
[V:1] E,2D,3C,F,2- | 
[V:2] z2B,,3C,D,2 | 
[V:3] G,,8- | 
[V:1] F,2E,2F,4 | 
[V:2] B,,4C,4 | 
[V:3] G,,4F,,4- | 
[V:1] C,4z2B,,2 | 
[V:2] z2F,2F,2F,2 | 
[V:3] F,,4z4 | 
[V:1] B,,2B,,2B,,2B,,2 | 
[V:2] F,2F,2G,2G,2 | 
[V:3] z8 | 
[V:1] C,2C,2C,2C,2 | 
[V:2] G,2G,2G,2G,2 | 
[V:3] z8 | 
[V:1] C,2C,2D,E,F,G, | 
[V:2] A,2F,3E,D,2 | 
[V:3] F,,4F,,2F,,2 | 
[V:1] A,B,CA,B,A,B,C | 
[V:2] C,4B,,2G,2- | 
[V:3] F,,2F,,2G,,2G,,2 | 
[V:1] D2C4=B,2 | 
[V:2] G,F,E,2D,4 | 
[V:3] G,,2G,,2G,,2G,,2 | 
[V:1] C2A,3G,F,2 | 
[V:2] C,4z2A,2- | 
[V:3] A,,8- | 
[V:1] E,2F,2C,2A,2- | 
[V:2] A,G,F,2E,2F,2 | 
[V:3] A,,8- | 
[V:1] A,G,F,2E,2F,2 | 
[V:2] C,2A,3G,F,2 | 
[V:3] A,,8- | 
[V:1] C,2A,3G,F,2 | 
[V:2] E,2F,2C,2A,2- | 
[V:3] A,,8 | 
[V:1] E,2F,4E,2 | 
[V:2] A,2G,F,G,4 | 
[V:3] C,8 | 
[V:1] F,4z4 | 
[V:2] F,2B,2A,3G,/A,/ | 
[V:3] D,8- | 
[V:1] z4z2B,2 | 
[V:2] B,2A,3G,G,2- | 
[V:3] D,8 | 
[V:1] A,3G,/A,/B,2A,2- | 
[V:2] G,2F,2G,2E,2- | 
[V:3] D,4B,,2C,2- | 
[V:1] A,G,G,4^F,2 | 
[V:2] E,D,D,4C,2 | 
[V:3] C,B,,A,,G,,A,,4 | 
[V:1] G,4G,2G,2- | 
[V:2] D,8- | 
[V:3] G,,8 | 
[V:1] G,2G,2G,4 | 
[V:2] D,4D,2D,2- | 
[V:3] G,,2G,,4G,,2 | 
[V:1] z2G,2B,3B, | 
[V:2] D,2D,2D,4- | 
[V:3] G,,4z2G,,2 | 
[V:1] B,2B,2F,4 | 
[V:2] D,4z2D,2 | 
[V:3] B,,3B,,B,,2B,,2 | 
[V:1] z2A,2B,3A,/G,/ | 
[V:2] F,3F,F,2F,2 | 
[V:3] F,,4B,,4 | 
[V:1] A,2G,3F,F,2- | 
[V:2] C,4z2A,2 | 
[V:3] A,,F,,C,2B,,A,,G,,F,, | 
[V:1] F,2E,2F,2E,2 | 
[V:2] B,3A,/G,/A,2G,2- | 
[V:3] G,,4F,,2C,2 | 
[V:1] A,2F,2G,4 | 
[V:2] G,2F,4E,2 | 
[V:3] D,2A,2B,3A,/G,/ | 
[V:1] F,2C,2D,4 | 
[V:2] F,2E,2A,2F,2 | 
[V:3] A,2G,3F,F,2- | 
[V:1] C,4z4 | 
[V:2] G,4F,4- | 
[V:3] F,2E,2F,4 | 
[V:1] C4C2C2 | 
[V:2] F,4z2F,2 | 
[V:3] z4F,,4 | 
[V:1] C2C2A,2A,2 | 
[V:2] F,2F,2F,2F,2 | 
[V:3] F,,2F,,2F,,2F,,2 | 
[V:1] D6C2 | 
[V:2] D,2D,2G,4- | 
[V:3] G,,6G,,2 | 
[V:1] B,2A,2G,2C2- | 
[V:2] G,2F,2E,4 | 
[V:3] G,,2G,,2G,,4 | 
[V:1] C2=B,2C4- | 
[V:2] D,4C,4 | 
[V:3] G,,4A,,4- | 
[V:1] C8 | 
[V:2] z2E,2A,4 | 
[V:3] A,,4z2A,,2 | 
[V:1] z2A,2D4 | 
[V:2] A,2F,4E,D, | 
[V:3] D,4D,2B,,2- | 
[V:1] D2B,4A,G, | 
[V:2] D,4D,2D,2- | 
[V:3] B,,2A,,G,,G,,4 | 
[V:1] G,4G,2G,2- | 
[V:2] D,2D,2D,4 | 
[V:3] G,,2G,,4G,,2 | 
[V:1] G,2G,2G,4 | 
[V:2] z2D,2G,4 | 
[V:3] G,,4z2G,,2 | 
[V:1] z8 | 
[V:2] G,F,E,D,E,2F,2- | 
[V:3] C,4C,B,,A,,G,, | 
[V:1] z8 | 
[V:2] F,E,D,C,D,C,F,2- | 
[V:3] A,,2B,,3A,,G,,F,, | 
[V:1] G,4C4 | 
[V:2] F,2E,2F,4 | 
[V:3] G,,4F,,2F,,2 | 
[V:1] CB,A,G,A,2F,2- | 
[V:2] z8 | 
[V:3] F,4F,E,D,C, | 
[V:1] F,E,D,C,D,C,F,2- | 
[V:2] z8 | 
[V:3] D,2B,,3A,,G,,F,, | 
[V:1] F,2E,2F,4- | 
[V:2] G,4C4 | 
[V:3] G,,4F,,4- | 
[V:1] F,8- | 
[V:2] CB,A,G,A,2F,2- | 
[V:3] F,,8- | 
[V:1] F,8- | 
[V:2] F,E,D,C,D,C,F,2- | 
[V:3] F,,4F,,4 | 
[V:1] F,8 |]  
[V:2] F,2E,D,C,4 |]  
[V:3] B,,2B,,2F,,4 |]  



